X: 4299
T: Bodaich Bheaga Abriachan
R: strathspey
M: 4/4
K: Adorian
A<A A2 B<d e2|d>e g>d B>A G>D|G>A B>A G>A G>E|D>E G>A B<A A2:|
A<a a>g a<b a2|g>a b>a g<e e>f|g>a g/f/e d>e g>f|e<g G>A B<A A2:|

